icon-themes/breeze_svg/cmd/32/grow.svg

<svg viewBox="0 0 32 32" xmlns="http://www.w3.org/2000/svg"><path d="m13 4-8.9296875 23.824219-.0703125.175781h2l3.3925781-9h4.6074219 4.607422l3.392578 9h2l-.070312-.175781-8.929688-23.824219h-1zm1 2.4023438 3.849609 10.5976562h-3.849609-3.849609z" fill="#4d4d4d"/><path d="m23 4-1 1-4 4 .707031.7070312 3.792969-3.7929687v9.0859375h1v-9.0859375l3.792969 3.7929687.707031-.7070312-4-4z" fill="#1d99f3"/></svg>

<svg xmlns="http://www.w3.org/2000/svg" viewBox="0 0 32 32">
 <path 
     style="fill:#4d4d4d" 
     d="M 13 4 L 4.0703125 27.824219 L 4 28 L 6 28 L 9.3925781 19 L 14 19 L 18.607422 19 L 22 28 L 24 28 L 23.929688 27.824219 L 15 4 L 14 4 L 13 4 z M 14 6.4023438 L 17.849609 17 L 14 17 L 10.150391 17 L 14 6.4023438 z "
     />
 <path 
     style="fill:#1d99f3" 
     d="M 23 4 L 22 5 L 18 9 L 18.707031 9.7070312 L 22.5 5.9140625 L 22.5 15 L 23.5 15 L 23.5 5.9140625 L 27.292969 9.7070312 L 28 9 L 24 5 L 23 4 z "
     />
</svg>
